X:102
T:Blue Eyed Stranger
M:4/4
L:1/8
K:G
G4D2GF|ED EF G2A2|B2d2cB AG|EF GB A2D2|
G2D2D2GF|ED EF G2A2|B2d2cB AG|E2F2G4:|
|:GA Bc d2d2|ed cB A4|GA Bc d2d2|B3c d4|
GA Bc d2d2|ed cB A2GA|B2d2cB AG|E2F2G4:|
